X: 170
T: Man of the House
M: 4/4
R:reel
L: 1/8
K: Edor
E2 BE GABG | ~E2 BE ADFD | ~E2BE GABe |1 dBAd BEED :|2 dBAd BEE2 ||
efge fgaf | gfed eB ~B2 | efge fgaf | gfed Be ~e2 |
efge fgaf | gfed efga | bgaf gfed | eBBA GEFD ||

"variation:"
E2 BE GABG | ~E2 BE ADFD | ~E2BE GABe |1 dBAd BEED :|2 dBAd BEE2 ||
efge fgaf | gfed eB ~B2 | efge fgaf | gfed Be ~e2 |
efge fgaf | gfed efga | bgaf gefd | eB=cA BGAF ||

